packages/components/src/components/icon/common/ic-email-sent-dashboard.svg

<svg width="102" height="102" viewBox="0 0 102 102" fill="none" xmlns="http://www.w3.org/2000/svg">
<g clip-path="url(#clip0)">
<path d="M84.1784 53.2575H84.1562L42.1673 22.2251L0.111978 53.2575H0.0898438H0.111978L0.0898438 53.2796H0.111978L42.1009 84.312L84.1562 53.2796H84.1784V53.2575Z" fill="#B6CDD0"/>
<path d="M70.6757 33.7808H13.6797V77.2306L71.9817 77.1642H70.6757V33.7808Z" fill="white"/>
<path d="M11.0469 31.146V77.2298H13.6809V33.78H70.6769V77.1634H71.9828H73.2888V31.146H11.0469Z" fill="#85ACB0"/>
<path d="M55.5348 44.3159H28.7965C23.949 44.3159 20.0312 48.2337 20.0312 53.0811C20.0312 57.9286 23.949 61.8463 28.7965 61.8463H55.5348C60.3822 61.8463 64.3 57.9286 64.3 53.0811C64.3222 48.2337 60.3822 44.3159 55.5348 44.3159ZM33.3783 55.6709L32.006 56.6448C31.5633 56.0471 31.032 55.2282 30.4344 54.1879C29.8811 55.2724 29.372 56.0914 28.9514 56.6448L27.6012 55.6709C28.4866 54.5863 29.1063 53.8558 29.5048 53.5017C28.5309 53.3025 27.5791 53.1033 26.7158 52.8598L27.2471 51.244C28.4645 51.6645 29.3277 52.0408 29.8811 52.3507C29.7261 50.9784 29.6597 50.0266 29.6597 49.4954H31.3198C31.2977 50.2479 31.2091 51.1997 31.0542 52.3286C31.8289 51.9301 32.7364 51.576 33.7546 51.2218L34.2858 52.8377C33.3119 53.1475 32.3601 53.3689 31.4305 53.4796C31.8731 53.9222 32.515 54.6305 33.3783 55.6709ZM45.0652 55.6709L43.6929 56.6448C43.2502 56.0471 42.719 55.2282 42.1214 54.1879C41.568 55.2724 41.0589 56.0914 40.6384 56.6448L39.2882 55.6709C40.1735 54.5863 40.7933 53.8558 41.1917 53.5017C40.2178 53.3025 39.266 53.1033 38.4028 52.8598L38.934 51.244C40.1514 51.6645 41.0146 52.0408 41.568 52.3507C41.4131 50.9784 41.3467 50.0266 41.3467 49.4954H43.0067C42.9846 50.2479 42.8961 51.1997 42.7411 52.3286C43.5158 51.9301 44.4233 51.576 45.4415 51.2218L45.9727 52.8377C44.9988 53.1475 44.0471 53.3689 43.1174 53.4796C43.5601 53.9222 44.2241 54.6305 45.0652 55.6709ZM56.7743 55.6709L55.402 56.6448C54.9593 56.0471 54.4281 55.2282 53.8305 54.1879C53.2771 55.2724 52.768 56.0914 52.3475 56.6448L50.9973 55.6709C51.8826 54.5863 52.5024 53.8558 52.9008 53.5017C51.9269 53.3025 50.9751 53.1033 50.1119 52.8598L50.6431 51.244C51.8605 51.6645 52.7237 52.0408 53.2771 52.3507C53.1222 50.9784 53.0558 50.0266 53.0558 49.4954H54.7158C54.6937 50.2479 54.6052 51.1997 54.4502 52.3286C55.2249 51.9301 56.1324 51.576 57.1506 51.2218L57.6376 52.8819C56.6637 53.1918 55.7119 53.4131 54.7822 53.5238C55.2692 53.9222 55.9111 54.6305 56.7743 55.6709Z" fill="#85ACB0"/>
<path d="M55.4922 73.9092L84.1784 93.9187V53.3242L55.4922 73.9092Z" fill="#85ACB0"/>
<path d="M0.0898438 53.3242V93.9187L28.7981 73.9313L0.0898438 53.3242Z" fill="#85ACB0"/>
<path d="M42.1673 68.043L30.2811 76.3212L0.0898438 97.3268V98.4113C0.0898438 100.337 1.66139 101.909 3.58708 101.909H80.6811C82.629 101.909 84.1784 100.337 84.1784 98.4113V97.3268L53.9871 76.277L42.1673 68.043Z" fill="#85ACB0"/>
<g style="mix-blend-mode:multiply">
<path d="M77.5588 48.7865C91.0057 48.7865 101.907 37.8856 101.907 24.4386C101.907 10.9917 91.0057 0.0908203 77.5588 0.0908203C64.1118 0.0908203 53.2109 10.9917 53.2109 24.4386C53.2109 37.8856 64.1118 48.7865 77.5588 48.7865Z" fill="#FF444F"/>
</g>
<path d="M78.1556 13.394V8.3916L67.9517 15.2975L78.1556 22.2035V17.356C82.8038 17.6659 86.4781 21.5394 86.4781 26.2541C86.4781 31.1679 82.4718 35.1742 77.558 35.1742C72.6442 35.1742 68.6378 31.1679 68.6378 26.2541H64.6758C64.6758 33.3592 70.4529 39.1363 77.558 39.1363C84.6631 39.1363 90.4402 33.3592 90.4402 26.2541C90.4402 19.326 84.973 13.7039 78.1556 13.394Z" fill="white"/>
</g>
<defs>
<clipPath id="clip0">
<rect width="101.818" height="101.818" fill="white" transform="translate(0.0898438 0.0908203)"/>
</clipPath>
</defs>
</svg>

<svg width="102" height="102" fill="none" xmlns="http://www.w3.org/2000/svg"><g clip-path="url(#clip0)"><path d="M84.178 53.258h-.022L42.167 22.224.112 53.257H.09h.022l-.022.023h.022l41.989 31.032L84.156 53.28h.022v-.023z" fill="#B6CDD0"/><path d="M70.676 33.78H13.68v43.45l58.302-.066h-1.306V33.781z" fill="#fff"/><path d="M11.047 31.146V77.23h2.634V33.78h56.996v43.383h2.612V31.146H11.047z" fill="#85ACB0"/><path d="M55.535 44.316H28.797a8.757 8.757 0 00-8.766 8.765 8.757 8.757 0 008.766 8.765h26.738a8.757 8.757 0 008.765-8.765c.022-4.847-3.918-8.765-8.765-8.765zM33.378 55.67l-1.372.974c-.443-.598-.974-1.417-1.572-2.457-.553 1.084-1.062 1.903-1.483 2.457l-1.35-.974c.886-1.085 1.505-1.815 1.904-2.17-.974-.198-1.926-.398-2.79-.641l.532-1.616c1.218.42 2.08.797 2.634 1.107-.155-1.373-.221-2.324-.221-2.856h1.66c-.022.753-.11 1.705-.266 2.834.775-.399 1.682-.753 2.7-1.107l.532 1.616c-.974.31-1.926.53-2.856.642.443.442 1.085 1.15 1.948 2.19zm11.687 0l-1.372.974c-.443-.598-.974-1.417-1.572-2.457-.553 1.084-1.062 1.903-1.483 2.457l-1.35-.974c.886-1.085 1.505-1.815 1.904-2.17-.974-.198-1.926-.398-2.79-.641l.532-1.616c1.217.42 2.08.797 2.634 1.107-.155-1.373-.221-2.324-.221-2.856h1.66c-.022.753-.11 1.705-.266 2.834.775-.399 1.682-.753 2.7-1.107l.532 1.616c-.974.31-1.926.53-2.856.642.443.442 1.107 1.15 1.948 2.19zm11.71 0l-1.373.974c-.443-.598-.974-1.417-1.572-2.457-.553 1.084-1.062 1.903-1.483 2.457l-1.35-.974c.886-1.085 1.505-1.815 1.904-2.17-.974-.198-1.926-.398-2.79-.641l.532-1.616c1.218.42 2.08.797 2.634 1.107-.155-1.373-.221-2.324-.221-2.856h1.66c-.022.753-.11 1.705-.266 2.834.775-.399 1.682-.753 2.7-1.107l.488 1.66c-.974.31-1.926.531-2.856.642.487.398 1.13 1.106 1.992 2.147zM55.492 73.91l28.686 20.009V53.324L55.492 73.91zM.09 53.324V93.92L28.798 73.93.09 53.324zM42.167 68.043l-11.886 8.278L.09 97.327v1.084a3.505 3.505 0 003.497 3.498h77.094a3.49 3.49 0 003.497-3.498v-1.084l-30.19-21.05-11.82-8.234z" fill="#85ACB0"/><path d="M77.559 48.786c13.447 0 24.348-10.9 24.348-24.347C101.907 10.992 91.006.09 77.559.09S53.21 10.99 53.21 24.439c0 13.447 10.9 24.347 24.348 24.347z" fill="#FF444F"/><path d="M78.156 13.394V8.392l-10.204 6.905 10.204 6.906v-4.847c4.648.31 8.322 4.183 8.322 8.898 0 4.914-4.006 8.92-8.92 8.92s-8.92-4.006-8.92-8.92h-3.962c0 7.105 5.777 12.882 12.882 12.882 7.105 0 12.882-5.777 12.882-12.882 0-6.928-5.467-12.55-12.284-12.86z" fill="#fff"/></g><defs><clipPath id="clip0"><path fill="#fff" transform="translate(.09 .09)" d="M0 0h101.818v101.818H0z"/></clipPath></defs></svg>
